!!!SOCIAL_FUNCTION:	songs of war
!!!PDT:	1913
!!!OTL: No_42_A_Cloud.krn
!!!REG: Great_Lakes
!!!LANG: Non-Tone
!!!LING_GROUP: Algonquin
**kern	**kern
*staff2	*staff1
*clefF4	*clefF4
*k[f#c#g#]	*k[f#c#g#]
*M2/4	*M2/4
4r	8e\L
.	24e\K
.	12e\J
=1	=1
8GG#^/L	4f#\
8GG#/J	.
8GG#^/L	8.f#\L
8GG#/J	.
.	16f#\Jk
=2	=2
8GG#^/L	4f#\
8GG#/J	.
8GG#^/L	8.e\L
8GG#/J	.
.	16e\Jk
=3	=3
2r	4c#\
.	8e\L
.	24e\K
.	12e\J
=4	=4
2r	(16c#\LK
.	8.A\J)
.	8.A\L
.	16A\Jk
=5	=5
2r	2A\
=6	=6
2r	4A\
.	[4A\
=7||	=7||
*M3/4	*M3/4
2.r	2A\]
.	8e\L
.	24e\K
.	12e\J
=8||	=8||
*M2/4	*M2/4
2r	4c#\
.	8.c#\L
.	16c#\Jk
=9	=9
2r	4c#\
.	(12c#\L
.	12B\)
.	12B\J
=10	=10
2r	4A\
.	8B-\L
.	24B-\K
.	12B-\J
=11	=11
2r	(16cn\LK
.	8.A\J)
.	8.A\L
.	16A\Jk
=12||	=12||
*M3/4	*M3/4
2.r	2A\
.	8E\L
.	24E\K
.	12E\J
=13||	=13||
*M2/4	*M2/4
2r	4Fn\
.	8.F\L
.	16F\Jk
=14	=14
2r	4Fn\
.	8.E\L
.	16E\Jk
=15	=15
2r	4C#/
.	8E\L
.	24E\K
.	12E\J
=16	=16
2r	(16C#/LK
.	8.AA/J)
.	8.AA/L
.	16AA/Jk
=17	=17
2r	2AA/
==	==
*-	*-
